src/images/Icons/Light/Theme.svg

<svg fill="none" height="24" viewBox="0 0 24 24" width="24" xmlns="http://www.w3.org/2000/svg"><g fill="#2b3652"><path d="m10.0833 15.958h-6.57553c-.83222 0-1.50777.6637-1.50777 1.4813 0 .8166.67555 1.4814 1.50777 1.4814h6.57553c.8322 0 1.5078-.6648 1.5078-1.4814 0-.8176-.6756-1.4813-1.5078-1.4813z" opacity=".4"/><path d="m22.0001 6.37867c0-.81653-.6755-1.48023-1.5067-1.48023h-6.5755c-.8322 0-1.5077.6637-1.5077 1.48023 0 .81763.6755 1.48133 1.5077 1.48133h6.5755c.8312 0 1.5067-.6637 1.5067-1.48133z" opacity=".4"/><path d="m8.87774 6.37856c0 1.86667-1.53888 3.37965-3.43887 3.37965-1.89888 0-3.43887-1.51298-3.43887-3.37965 0-1.86558 1.53999-3.37856 3.43887-3.37856 1.89999 0 3.43887 1.51298 3.43887 3.37856z"/><path d="m21.9998 17.3992c0 1.8656-1.5389 3.3785-3.4389 3.3785-1.8988 0-3.4388-1.5129-3.4388-3.3785 0-1.8667 1.54-3.3797 3.4388-3.3797 1.9 0 3.4389 1.513 3.4389 3.3797z"/></g></svg>

<svg width="24" height="24" viewBox="0 0 24 24" fill="none" xmlns="http://www.w3.org/2000/svg">
<path opacity="0.4" d="M10.0833 15.958H3.50777C2.67555 15.958 2 16.6217 2 17.4393C2 18.2559 2.67555 18.9207 3.50777 18.9207H10.0833C10.9155 18.9207 11.5911 18.2559 11.5911 17.4393C11.5911 16.6217 10.9155 15.958 10.0833 15.958Z" fill="#2B3652"/>
<path opacity="0.4" d="M22.0001 6.37867C22.0001 5.56214 21.3246 4.89844 20.4934 4.89844H13.9179C13.0857 4.89844 12.4102 5.56214 12.4102 6.37867C12.4102 7.1963 13.0857 7.86 13.9179 7.86H20.4934C21.3246 7.86 22.0001 7.1963 22.0001 6.37867Z" fill="#2B3652"/>
<path d="M8.87774 6.37856C8.87774 8.24523 7.33886 9.75821 5.43887 9.75821C3.53999 9.75821 2 8.24523 2 6.37856C2 4.51298 3.53999 3 5.43887 3C7.33886 3 8.87774 4.51298 8.87774 6.37856Z" fill="#2B3652"/>
<path d="M21.9998 17.3992C21.9998 19.2648 20.4609 20.7777 18.5609 20.7777C16.6621 20.7777 15.1221 19.2648 15.1221 17.3992C15.1221 15.5325 16.6621 14.0195 18.5609 14.0195C20.4609 14.0195 21.9998 15.5325 21.9998 17.3992Z" fill="#2B3652"/>
</svg>
